X:126
T:Lady turned highwayman - Setter A
%%VWML:SBG-1-2-187-0
F:http://www.vwml.org/record/SBG/1/2/187
Z:Original Sibelius transcriptions by M. & S. Graebe
M:3/4
I:linebreak $
K:C
V:1 treble nm="P1"
V:1
 G | c B c | e d c | G2 G | d e f | f e d | c2 d |$ g d g | e c d | B2 d | e c f | e d B | c2 x | %13
T:Lady turned highwayman - Setter B
F:http://www.vwml.org/record/SBG/1/2/187
Z:Original Sibelius transcriptions by M. & S. Graebe
M:3/4
I:linebreak $
K:C
V:1 treble nm="P1" snm="Voice"
V:1
 c G A | G A B | c2 x | %3
T:Lady turned highwayman - Peake
F:http://www.vwml.org/record/SBG/1/2/187
Z:Original Sibelius transcriptions by M. & S. Graebe
L:1/8
M:3/4
I:linebreak $
K:C
V:1 treble nm="P1"
V:2 treble 
L:1/4
V:1
 G2 | Bd d2 cA | GG G2 B2 | cc c2 BA | Bc d2 d2 |$ Bd g2 ec | ee d3 G | Bd d2 cA | G G G2 x2 | %9
V:2
 x | x3 | x/ F/ x x | x3 | x3 |$ x3 | x3 | x3 | x3 | %9


